**kern	**kern	**kern	**kern	**dynam
*part4	*part3	*part2	*part1	*part1
*staff4	*staff3	*staff2	*staff1	*
*I"Violoncello	*I"Viola	*I"Violin 2	*I"Violin 1	*
*clefF4	*clefC3	*clefG2	*clefG2	*
*k[]	*k[]	*k[]	*k[]	*
*C:	*C:	*C:	*C:	*
*M3/4	*M3/4	*M3/4	*M3/4	*
=1	=1	=1	=1	=1
.	.	.	(32qqG/LLL	f
.	.	.	32qqc/JJJ	.
4CC'	(2G	2.c	2.e)	.
4C'	.	.	.	.
4C'	4c)	.	.	.
=2	=2	=2	=2	=2
.	.	.	(32qqG/LLL	fz
.	.	.	32qqd/JJJ	.
4CC'	(4B	2.d	2.f)	.
4C'	4G	.	.	.
4C'	4F)	.	.	.
=3	=3	=3	=3	=3
.	.	.	(32qqG/LLL	fz
.	.	.	32qqe/JJJ	.
4CC'	4E'	2e	2g)	.
4C'	4c'	.	.	.
4C'	(8FL	(8aL	(8ccL	.
.	8AJ)	8fJ)	8aJ)	.
=4	=4	=4	=4	=4
4CC'	4c'	4e'	4g'	.
4r	4r	4r	4cc'	.
4r	4r	4r	4cc'	.
=5	=5	=5	=5	=5
2.r	(4c	(4e	[2.cc	.
.	4d	4f	.	.
.	[4e)	4g)	.	.
=6	=6	=6	=6	=6
2.r	2.e] 2.f	2.g 2.a	4cc]	.
.	.	.	4cc#X'	.
.	.	.	[4dd	.
=7	=7	=7	=7	=7
2.r	2.g	2.b	4dd]	.
.	.	.	4ff'	.
.	.	.	4b'	.
=8	=8	=8	=8	=8
2.r	(4c	(4e	(2.cc	.
.	4d	4f	.	.
.	4e)	4g)	.	.
=9	=9	=9	=9	=9
2.r	2.f	[2.a	4cc)	.
.	.	.	4cc#X'	.
.	.	.	[4dd	.
=10	=10	=10	=10	=10
2.r	2.f#X	2.a]	4dd]	.
.	.	.	4ee'	.
.	.	.	4ccn'	.
=11	=11	=11	=11	=11
4G'	4g'	4b'	4b'	.
4d'	(12aL	4cc'	(12ff#XL	.
.	12g	.	12gg	.
.	12f#XJ)	.	12aaJ)	.
4G'	4g'	4b'	4gg'	.
=12	=12	=12	=12	=12
4d'	12aL	4cc'	12ff#XL	.
.	12g	.	12gg	.
.	12f#XJ	.	12aaJ	.
4G'	4g	4b'	4gg'	.
4d'	12aL	4cc'	12ff#L	.
.	12g	.	12gg	.
.	12f#J	.	12aaJ	.
=13	=13	=13	=13	=13
4G'	4g'	4b'	4gg'	.
4D'	4d'	4b'	4gg'	.
4BB'	4d'	4b'	4gg'	.
=14	=14	=14	=14	=14
4GG'	4d'	4b'	4gg'	.
4r	4r	4r	4r	.
4r	4r	4r	4r	.
=15:|!|:	=15:|!|:	=15:|!|:	=15:|!|:	=15:|!|:
4AA-X'	2.r	2.r	2.A-X	.
4E-X'	.	.	.	.
4C'	.	.	.	.
=16	=16	=16	=16	=16
4AA-X	2.r	2.A-X	2.c	.
4E-X	.	.	.	.
4C	.	.	.	.
=17	=17	=17	=17	=17
4AA-X	2.A-X	[2.c	2.e-X	.
4E-X	.	.	.	.
[4GG-X	.	.	.	.
=18	=18	=18	=18	=18
2.FF	2.An	2.c] 2.e-X	(2g-X	.
.	.	.	8e-XL	.
.	.	.	8cJ)	.
=19	=19	=19	=19	=19
4BB-X'	4B-X	4d-X	2.B-X	.
4F'	4r	4r	.	.
4D-X'	4r	4r	.	.
=20	=20	=20	=20	=20
4BB-X'	2.r	2.B-X	2.d-X	.
4F'	.	.	.	.
4D'	.	.	.	.
=21	=21	=21	=21	=21
4BB-X'	2.B-X	2.d-X	2f	.
4F'	.	.	.	.
4AA-X'	.	.	4r	.
=22	=22	=22	=22	=22
2.GG	2.B-X	2.d 2.f	(2a-X	.
.	.	.	8fL	.
.	.	.	8dnJ)	.
=23	=23	=23	=23	=23
4C'	2.c	2.e-X	2.e-X	.
4G'	.	.	.	.
4E-X'	.	.	.	.
=24	=24	=24	=24	=24
4BB-X'	2.B-X	2.d-X	2.g	.
4G'	.	.	.	.
4E-X'	.	.	.	.
=25	=25	=25	=25	=25
!	!	!	!	!
4AA-X'	2A-X	4c'	2cc	.
4AA-'	.	4g'	.	.
.	.	.	(8qdd/	<
4AA-'	4G	4e-X'	16ccLL)	.
.	.	.	16b	.
.	.	.	16cc	.
.	.	.	16ddJJ)	.
=26	=26	=26	=26	=26
4AA-X'	2F#X	(4c	2ee-X	.
!	!	!	!	!
4AA-'	.	4Bn	.	.
4AA-'	4c'	4c)	4f#X	.
=27	=27	=27	=27	=27
4GG'	4d'	4B'	4g'	.
4r	4r	4r	(8ff#XL	.
.	.	.	8ggJ	.
4r	[4F#X	(8cL	8ee-XL	.
.	.	8e-XJ)	8ccJ)	.
=28	=28	=28	=28	=28
4GG'	4G	4d	(8bL	.
.	.	.	8ddJ)	.
4r	4r	4r	(8ff#XL	.
.	.	.	8ggJ)	.
4r	4F#X	(8cL	(8ee-XL	.
.	.	8e-XJ)	8ccJ)	.
=29	=29	=29	=29	=29
4GG	4G	4d	(8bL	.
.	.	.	8ddJ)	.
4r	4r	4r	(8ff#XL	.
.	.	.	8ggJ)	.
4r	(8CL	4f#X	(8ee-XL	.
.	8E-XJ)	.	8ccJ)	.
=30	=30	=30	=30	=30
4GG	4D	4g	4g	.
4r	4r	4r	(8f#XL	.
.	.	.	8gJ	.
4r	4r	4r	8f#L	.
.	.	.	8gJ)	.
=31	=31	=31	=31	=31
!	!	!	!LO:TX:b:i:t=cresc.	!
2.r	2.r	2.r	(8g#XL	.
.	.	.	8aJ	.
.	.	.	8g#L	.
.	.	.	8aJ)	.
.	.	.	(8fnL	.
.	.	.	8dJ)	.
=32	=32	=32	=32	=32
.	.	.	(32qqG/LLL	f
.	.	.	32qqc/JJJ	.
4CC'	(2G	2.c	2.e)	.
4C'	.	.	.	.
4C'	4c)	.	.	.
=33	=33	=33	=33	=33
.	.	.	(32qqG/LLL	.
.	.	.	32qqd/JJJ	.
4CC'	(4B	2.d	2.f)	.
4C'	4G	.	.	.
4C'	4F)	.	.	.
=34	=34	=34	=34	=34
!	!	!	!	!LO:DY:a
.	.	.	(32qqG/LLL	fz
.	.	.	32qqe/JJJ	.
4CC'	4E	2e	2g)	.
4C'	4c	.	.	.
4C'	(8FL	(8aL	(8ccL	.
.	8AJ)	8fJ)	8aJ)	.
=35	=35	=35	=35	=35
4CC'	4c'	4e'	4g'	.
4r	4r	4r	4cc'	.
4r	4r	4r	4cc'	.
=36	=36	=36	=36	=36
2.r	(4c	(4e	[2.cc	.
.	4d	4f	.	.
.	4e)	4g)	.	.
=37	=37	=37	=37	=37
2.r	2.f	2.a	4cc]	.
.	.	.	4cc#X'	.
.	.	.	[4dd	.
=38	=38	=38	=38	=38
2.r	2.g	2.b-X	4dd]	.
.	.	.	4ff'	.
.	.	.	4b'	.
=39	=39	=39	=39	=39
2.r	(4c	(4e	[2.cc	.
.	4d	4f	.	.
.	4e)	4g)	.	.
=40	=40	=40	=40	=40
2.r	2.f	2.a-X	4cc]	.
.	.	.	4dd-X'	.
.	.	.	[4dd-	.
=41	=41	=41	=41	=41
2.e-X	2.g	2.b-X	4dd-]	.
.	.	.	4ff'	.
.	.	.	4b-X'	.
=42	=42	=42	=42	=42
2.A-X	2.a-X	2.cc	4cc'	.
.	.	.	4ee-X'	.
.	.	.	[4aa-X	.
=43	=43	=43	=43	=43
2E-X	2e-X	2b-X	4aa-]	.
.	.	.	4gg'	.
4En'	4en'	4dd-X'	[4bb-X	.
=44	=44	=44	=44	=44
2F	2f	2cc	4bb-]	.
.	.	.	4aan'	.
4F#X'	4f#X'	4ee-X'	[4ccc	.
=45	=45	=45	=45	=45
[2.G	4g'	2dd	4ccc]	.
.	4G'	.	4bb'	.
.	4A'	4cc'	4ff#X'	.
=46	=46	=46	=46	=46
2.G_	4B'	4dd'	4gg'	.
.	(4dd	(4ff	8ggL	.
.	.	.	8aa	.
.	4cc)	4ee)	8bb	.
.	.	.	8cccJ	.
=47	=47	=47	=47	=47
2.G_	4b'	4dd'	4ddd	.
.	(4d	(4f	8bbL	.
.	.	.	8ccc	.
.	4c)	4e)	8ddd	.
.	.	.	8eeeJ	.
=48	=48	=48	=48	=48
2.G]	(4B	(4d	4fffn	.
.	4A	4c	4fff	.
.	4B)	4d)	4fff	.
=49	=49	=49	=49	=49
.	.	(32qqG/LLL	.	.
.	.	32qqc/JJJ	.	.
4CC	2.c	2.e)	8eeeL	.
.	.	.	8gggJ	.
4C'	.	.	8fffL	.
.	.	.	8eeeJ	.
4C'	.	.	8dddL	.
.	.	.	8cccJ	.
=50	=50	=50	=50	=50
.	.	(32qqG/LLL	.	.
.	.	32qqd/JJJ	.	.
4CC	2.d	2.f)	8bbL	.
.	.	.	8aaJ	.
4C	.	.	8ggL	.
.	.	.	8ffJ	.
4C	.	.	8eeL	.
.	.	.	8ddJ	.
=51	=51	=51	=51	=51
.	.	(32qqG/LLL	.	.
.	.	32qqe/JJJ	.	.
4CC	2e	2g)	8ccL	.
.	.	.	8eeJ	.
4C	.	.	8ddL	.
.	.	.	8ccJ	.
4C	4f	4f'	8bL	.
.	.	.	8aJ	.
=52	=52	=52	=52	=52
4CC	4e	2e	8gL	.
.	.	.	8eeJ	.
4C	4r	.	8ddL	.
.	.	.	8ccJ	.
4C	4r	4f'	8bL	.
.	.	.	8aJ	.
=53	=53	=53	=53	=53
4CC	2.c	2.e	8gL	.
.	.	.	8ggJ	.
4C	.	.	8ff#XL	.
.	.	.	8eeJ	.
4C	.	.	8ddL	.
.	.	.	8ccJ	.
=54	=54	=54	=54	=54
4FF	2.c	4f#X	8bL	.
.	.	.	8aJ	.
4F	.	4r	(8gg#XL	.
.	.	.	8aaJ)	.
4F	.	(8aL	(8ffL	.
.	.	8f#J)	8ddJ)	.
=55	=55	=55	=55	=55
4GG	4r	2e	2cc	.
4G	4g	.	.	.
4G	4f#X	4b	(8eeL	.
.	.	.	8ddJ)	.
=56	=56	=56	=56	=56
4E'	4e'	2cc	(12ggnL	.
.	.	.	12aa	.
.	.	.	12bb-XJ)	.
4F'	4f'	.	4aa	.
4c#X'	4a'	(4a'	(12eeL	.
.	.	.	12ff	.
.	.	.	12ggJ)	.
=57	=57	=57	=57	=57
4d'	4dd'	4a')	4ff#X	.
4B'	4g'	4dd'	(12ddL	.
.	.	.	12ee	.
.	.	.	12ff#J)	.
4cn'	4cc'	4g'	8ee	.
.	.	.	8r	.
=58	=58	=58	=58	=58
4F'	4f'	4a'	(12ddL	.
.	.	.	12ee	.
.	.	.	12ffJ)	.
4r	4r	4r	(12aL	.
.	.	.	12b	.
.	.	.	12ccJ)	.
4G'	4d'	4f'	(12bL	.
.	.	.	12cc	.
.	.	.	12ddJ)	.
.	.	.	16r	.
=59	=59	=59	=59	=59
4C'	4e'	4e'	.	.
.	.	.	4cc'	.
4GG'	4G'	4e'	.	.
.	.	.	4cc'	.
4EE'	4G'	4e'	.	.
.	.	.	4cc'	.
=60	=60	=60	=60	=60
4CC'	4G'	4e'	.	.
.	.	.	4cc'	.
4r	4r	4r	.	.
.	.	.	4r	.
4r	4r	4r	.	.
.	.	.	4r	.
=61:|!	=61:|!	=61:|!	=61:|!	=61:|!
*k[f#c#g#]	*k[f#c#g#]	*k[f#c#g#]	*	*
*A:	*A:	*A:	*	*
4AA'	2.A	2.c#	.	.
*	*	*	*k[f#c#g#]	*
*	*	*	*A:	*
.	.	.	2.ccn	.
4AA'	.	.	.	.
4AA'	.	.	.	.
=62	=62	=62	=62	=62
.	8qc#/	.	.	.
4AA'	4B	4d	.	.
.	.	.	8qee/	.
.	.	.	(4dd	.
4AA'	4A	4c#	.	.
.	.	.	4cc#	.
4AA'	4B	4d	.	.
.	.	.	4dd)	.
=63	=63	=63	=63	=63
4AA'	4c#'	4e'	.	.
.	.	.	[2.ee	.
4AA'	4c#'	4e'	.	.
4AA'	4c#'	4e'	.	.
=64	=64	=64	=64	=64
4AA'	4c#'	4e'	.	.
.	.	.	4ee]	.
4r	4r	4r	.	.
.	.	.	(4gg#'	.
4r	4r	4r	.	.
.	.	.	4aa')	.
=65	=65	=65	=65	=65
4AA'	(2.d	(2.f#	.	.
.	.	.	2.ee	.
4A'	.	.	.	.
4A'	.	.	.	.
=66	=66	=66	=66	=66
4A'	2.B)	2.gn)	.	.
.	.	.	8qee/	.
.	.	.	(4dd	.
4A'	.	.	.	.
.	.	.	4cc#	.
4A'	.	.	.	.
.	.	.	4dd)	.
=67	=67	=67	=67	=67
4A'	4cn'	4a'	.	.
.	.	.	[2.ccn	.
4A'	4c'	4e'	.	.
4A'	4c'	4e'	.	.
=68	=68	=68	=68	=68
4A'	4cn'	4e'	.	.
.	.	.	4cc#	.
4r	4r	4r	.	.
.	.	.	(4dd#X'	.
4r	4r	4r	.	.
.	.	.	4ee')	.
=69	=69	=69	=69	=69
4Gn'	4B'	4e'	.	.
.	.	.	[2.ee	.
4G'	4B'	4e'	.	.
4G'	4B'	4e'	.	.
=70	=70	=70	=70	=70
4Gn'	4B'	4e'	.	.
.	.	.	4ee]	.
4r	4r	4r	.	.
.	.	.	4ff#'	.
4r	4r	4r	.	.
.	.	.	4gg#'	.
=71	=71	=71	=71	=71
4F#'	4A'	4e'	.	.
.	.	.	4aa'	.
4r	4r	4r	.	.
.	.	.	4bb'	.
4r	4r	4r	.	.
.	.	.	4cccn'	.
=72	=72	=72	=72	=72
4B'	4A' 4f#	4d#X'	.	.
.	.	.	4b'	.
4r	4r	4r	.	.
.	.	.	4cc#'	.
4r	4r	4A'	.	.
.	.	.	4dd#X'	.
=73	=73	=73	=73	=73
4E'	4e'	4Gn'	.	.
.	.	.	4ee'	.
4E'	4B'	4G'	.	.
.	.	.	4ee'	.
4E'	4Gn'	4G	.	.
.	.	.	4ee'	.
=74	=74	=74	=74	=74
4E	4E	2Gn	.	.
.	.	.	(2ee	.
4r	4r	.	.	.
4r	4r	4B	.	.
.	.	.	4dd)	.
=75:|!	=75:|!	=75:|!	=75:|!	=75:|!
4E	4E	4G#	.	.
.	.	.	(2ee	.
4r	4r	4r	.	.
4r	4r	4r	.	.
.	.	.	4ee#X)	.
=76!|:	=76!|:	=76!|:	=76!|:	=76!|:
4D'	2.f#	2.A	.	.
.	.	.	2.ff#	f
4D'	.	.	.	.
4D'	.	.	.	.
=77	=77	=77	=77	=77
4BB'	2e	2.d	.	.
.	.	.	8qaa/	.
.	.	.	(4ggn	.
4BB'	.	.	.	.
.	.	.	4ff#	.
4BB'	4r	.	.	.
.	.	.	4gg)	.
=78	=78	=78	=78	=78
4C#'	4e	4e	.	.
.	.	.	[2.aa	.
4C#'	4A	4e	.	.
4C#'	[4A	4e	.	.
=79	=79	=79	=79	=79
4C#'	4A]	4e	.	.
.	.	.	4aa]	.
4r	4r	4r	.	.
.	.	.	4ccn	.
4r	4r	4r	.	.
.	.	.	4ee	.
=80	=80	=80	=80	=80
2.Gn	[2.e	2.b	.	.
.	.	.	(4ee	p
.	.	.	4dd)	.
.	.	.	4dd	.
=81	=81	=81	=81	=81
2.A	2.e]	(4b	.	.
.	.	.	(4dd	.
.	.	4a)	.	.
.	.	.	4ccn)	.
.	.	4a	.	.
.	.	.	4cc	.
=82	=82	=82	=82	=82
[2.E	4e	(4a	.	.
.	.	.	(4ccn	.
.	4e	4gn)	.	.
.	.	.	4b)	.
.	4e	4g	.	.
.	.	.	4b	.
=83	=83	=83	=83	=83
2E]	2e	2.gn	.	.
.	.	.	(2b	.
4r	4d	.	.	.
.	.	.	4b#X)	<
=84	=84	=84	=84	=84
4AA'	2cn	2.a	.	.
.	.	.	2.cc#	.
!LO:TX:b:i:t=mezza voce	!	!	!	!
4A'	.	.	.	.
!	!LO:TX:b:i:t=mezza voce	!	!	!
4A'	4r	.	.	.
=85	=85	=85	=85	=85
!	!	!LO:TX:b:i:t=mezza voce	!LO:TX:b:i:t=mezza voce	!
.	8qe/	8qcc#/	.	.
4A'	(4d	(4b	.	.
.	.	.	8qee/	.
.	.	.	(4dd	.
4A'	4cn	4a	.	.
.	.	.	4cc#	.
4A'	4d)	4b)	.	.
.	.	.	4dd)	.
=86	=86	=86	=86	=86
4AA'	[2.e	4cc#'	.	.
.	.	.	[2.ee	.
4A'	.	4cc#'	.	.
4A'	.	4cc#'	.	.
=87	=87	=87	=87	=87
4A	4e]	4cc#	.	.
.	.	.	4ee]	.
4r	(4gn'	4r	.	.
.	.	.	(4ggn'	.
4r	4a')	4r	.	.
.	.	.	4aa')	.
=88	=88	=88	=88	=88
4AA'	[2.f#	2dd	.	.
.	.	.	[2.ff#	.
4A'	.	.	.	.
4A'	.	4dd	.	.
=89	=89	=89	=89	=89
4A	4f#]	4dd	.	.
.	.	.	4ff#]	.
4r	4gn'	4r	.	.
.	.	.	4gg#'	.
4r	4a'	4r	.	.
.	.	.	4aa'	.
=90	=90	=90	=90	=90
4A'	4e'	4cc#'	.	.
.	.	.	4ee'	.
4A'	4e'	4cc#'	.	.
.	.	.	4aa'	p
4A'	4e'	4cc#'	.	.
.	.	.	4cccn'	.
=91	=91	=91	=91	=91
4A'	4e'	4cc#'	.	.
.	.	.	4eee'	.
4r	4r	4r	.	.
.	.	.	4r	.
4r	4r	4r	.	.
.	.	.	4r	.
=92	=92	=92	=92	=92
4D'	4f#'	4dd'	.	.
.	.	.	4ff#'	.
4D'	4f#'	4a'	.	.
.	.	.	4aa'	.
4D'	4f#'	4a'	.	.
.	.	.	4ddd'	.
=93	=93	=93	=93	=93
4D'	4f#'	4a'	.	.
.	.	.	4fff#'	.
4r	4r	4r	.	.
.	.	.	4r	.
4r	4r	4r	.	.
.	.	.	4r	.
=94	=94	=94	=94	=94
4E'	4A'	4cc#'	.	.
.	.	.	4eee'	.
4r	4r	4r	.	.
.	.	.	4cccn'	.
4r	4r	4r	.	.
.	.	.	4aa'	.
=95	=95	=95	=95	=95
4E'	4d'	4b'	.	.
.	.	.	4ee'	.
4r	4r	4r	.	.
.	.	.	4ff#'	.
4r	4r	4r	.	.
.	.	.	4gg#'	.
=96	=96	=96	=96	=96
4AA'	4c#'	4a'	.	.
.	.	.	4aa'	.
4AA'	4c#'	4e'	.	.
.	.	.	4aa'	.
4AA'	4c#'	4e'	.	.
.	.	.	4aa'	.
=97	=97	=97	=97	=97
4AA'	4cn'	4e'	.	.
.	.	.	4aa'	.
4r	4r	4r	.	.
.	.	.	4r	.
4r	4r	4r	.	.
.	.	.	4r	.
=98:|!	=98:|!	=98:|!	=98:|!	=98:|!
2.r	4e'	2.gn	.	.
.	.	.	2.b	pp
.	4e'	.	.	.
.	4e'	.	.	.
=99	=99	=99	=99	=99
.	.	(8qqb/	.	.
2.r	4d#X'	4a)	.	.
.	.	.	(8qdd/	.
.	.	.	(4ccn)	.
.	4d#'	4gn	.	.
.	.	.	4b	.
.	4d#'	4a)	.	.
.	.	.	4cc)	.
=100	=100	=100	=100	=100
2.r	4e'	[2.gn	.	.
.	.	.	[2.b	.
.	4e'	.	.	.
.	4e'	.	.	.
=101	=101	=101	=101	=101
2.r	4e'	4g]	.	.
.	.	.	(4b]	.
.	4r	4r	.	.
.	.	.	4ee	.
.	4r	4r	.	.
.	.	.	4dd)	.
=102	=102	=102	=102	=102
4E'	(4A	[2.d	.	.
.	.	.	[2.ccn	.
4E'	4G#	.	.	.
4E'	4A)	.	.	.
=103	=103	=103	=103	=103
4E	(4A	(2d]	.	.
.	.	.	(4cc]	.
4E	4B	.	.	.
.	.	.	4b	.
4E	4cn)	4a)	.	.
.	.	.	4a)	.
=104	=104	=104	=104	=104
4E	(4B	(4gn	.	.
.	.	.	2.ee	.
4E	4A	4a	.	.
4E	4Gn)	4b)	.	.
=105	=105	=105	=105	=105
4E	(4A	(2d#X	.	.
.	.	.	8qdd/	.
.	.	.	(4ccn	.
4E	4B	.	.	.
.	.	.	4b	.
4E	4cn)	4a)	.	.
.	.	.	4a)	.
=106	=106	=106	=106	=106
4E	(4B	(4gn	.	.
.	.	.	2.ee	.
4E	4A	4a	.	.
4E	4Gn)	4b)	.	.
=107	=107	=107	=107	=107
4E	4A	(2d#X	.	.
.	.	.	8qdd/	.
.	.	.	(4ccn	.
4E	4B	.	.	.
.	.	.	4b	.
4E	4cn	4a)	.	.
.	.	.	4a)	.
=108	=108	=108	=108	=108
4E'	4B'	4g#'	.	.
.	.	.	4ee'	.
4r	4r	4r	.	.
.	.	.	4ee'	.
4r	4r	4r	.	.
.	.	.	4ee'	.
=109	=109	=109	=109	=109
4E'	4Gn'	4B'	.	.
.	.	.	4r	.
4r	4r	4r	.	.
.	.	.	4b'	.
4r	4r	4r	.	.
.	.	.	4b'	.
=110	=110	=110	=110	=110
4E'	4Gn'	4B'	.	.
.	.	.	4r	.
4r	4r	4r	.	.
.	.	.	4g#'	.
4r	4r	4r	.	.
.	.	.	4g#'	.
=111	=111	=111	=111	=111
4E'	4Gn'	4B'	.	.
.	.	.	4r	.
4r	4r	4r	.	.
.	.	.	4e'	.
4r	4r	4r	.	.
.	.	.	4e'	.
=112	=112	=112	=112	=112
4E'	4Gn'	4B'	.	.
.	.	.	[2.e	.
4r	4r	4r	.	.
4r	4r	4r	.	.
=113	=113	=113	=113	=113
2.r	2.r	2.r	.	.
.	.	.	2.e]	.
==	==	==	==	==
*-	*-	*-	*-	*-
!!!system-decoration: [(s1,s2,s3,s4)]
